X: 21
T: No_117_The_Morning_Is_Shining_Upward.krn
N: Derived from No_117_The_Morning_Is_Shining_Upward.krn
%%abc-version 2.0
%%abcx-abcm2ps-target-version 5.9.1 (29 Sep 2008)
%%abc-creator hum2abc beta
%%abcx-conversion-date 2019/03/15 08:37:56
%%humdrum-veritas 3333839301
%%humdrum-veritas-data 1701930480
%%linebreak <none>
%%barnumbers 0
L: 1/16
M: 2/4
K: Ab clef=bass
[K:clef=bass][M:2/4]E,4C3B, | 
C3A,A,4 | 
F,2A,F, B,B,B,3/A,/ | 
E,2C,C, C,2 z2 | 
C,2E,E, (F,3C,) | 
E,2 (3E,E,E, E,2C,C, | 
E,2F,E, F,2F,F, ||  
[M:3/4]F,3C, E,3C, F,3C, | 
E,2 (3E,E,E,E,4z4 |]  



